build/img/11.svg

<svg width="84" height="80" viewBox="0 0 84 80" fill="none" xmlns="http://www.w3.org/2000/svg">
<path d="M15.7443 77.9999V78.9999H16.7443H31.3393H32.3393V77.9999V2.3999V1.3999H31.3393H16.7443H16.4674L16.2298 1.54241L2.05484 10.0474L1.56934 10.3387V10.9049V26.6549V28.4436L3.09308 27.5068L15.7443 19.7286V77.9999ZM65.525 77.9999V78.9999H66.525H81.12H82.12V77.9999V2.3999V1.3999H81.12H66.525H66.248L66.0105 1.54241L51.8355 10.0474L51.35 10.3387V10.9049V26.6549V28.4436L52.8737 27.5068L65.525 19.7286V77.9999Z" stroke="#FFCC24" stroke-width="2"/>
</svg>

<?xml version="1.0" encoding="utf-8"?>
<!-- Generator: Adobe Illustrator 26.3.1, SVG Export Plug-In . SVG Version: 6.00 Build 0)  -->
<svg version="1.1" id="Слой_1" xmlns="http://www.w3.org/2000/svg" xmlns:xlink="http://www.w3.org/1999/xlink" x="0px" y="0px"
	 viewBox="0 0 84 80" style="enable-background:new 0 0 84 80;" xml:space="preserve">
<style type="text/css">
	.st0{fill:#FFFFFF;stroke:#FFCC24;stroke-width:2;}
</style>
<path class="st0" d="M15.7,78v1h1h14.6h1v-1V2.4v-1h-1H16.7h-0.3l-0.2,0.1L2.1,10l-0.5,0.3v0.6v15.8v1.8l1.5-0.9l12.7-7.8V78z
	 M65.5,78v1h1h14.6h1v-1V2.4v-1h-1H66.5h-0.3L66,1.5L51.8,10l-0.5,0.3v0.6v15.8v1.8l1.5-0.9l12.7-7.8V78z"/>
</svg>
